resources/lib/oojs-ui/themes/mediawiki/images/icons/mapPinAdd-rtl.svg

<?xml version="1.0" encoding="utf-8"?>
<svg xmlns="http://www.w3.org/2000/svg" width="24" height="24" viewBox="0 0 24 24">
    <g id="g434">
        <g id="g436">
            <path d="M0 4h4v-4h2v4h4v2h-4v4h-2v-4h-4z" id="path438"/>
        </g>
    </g>
    <path d="M6 11h1v-3.9l.1-.1h3.9v-1.9c.3-.1.7-.1 1-.1 3.9 0 7 3.1 7 7 0 1.4-.4 2.6-1.1 3.7l-5.9 7.3-5.9-7.3c-.7-1.1-1.1-2.3-1.1-3.7 0-.3 0-.7.1-1h.9zm6 5c2.2 0 4-1.8 4-4s-1.8-4-4-4-4 1.8-4 4 1.8 4 4 4z" id="path440"/>
</svg>

<?xml version="1.0" encoding="utf-8"?>
<svg xmlns="http://www.w3.org/2000/svg" width="24" height="24" viewBox="0 0 24 24">
    <path d="M0 4h4V0h2v4h4v2H6v4H4V6H0z"/>
    <path d="M6 11h1V7.1l.1-.1H11V5.1c.3-.1.7-.1 1-.1 3.9 0 7 3.1 7 7 0 1.4-.4 2.6-1.1 3.7L12 23l-5.9-7.3C5.4 14.6 5 13.4 5 12c0-.3 0-.7.1-1H6zm6 5c2.2 0 4-1.8 4-4s-1.8-4-4-4-4 1.8-4 4 1.8 4 4 4z"/>
</svg>
